symbols/web/window/materialsymbolssharp/window_wght700_40px.svg

<svg xmlns="http://www.w3.org/2000/svg" height="40" width="40"><path d="M2.167 37.833V2.125h35.708v35.708Zm16.458-19.208V6.542H6.542v12.083Zm0 2.75H6.542v12.083h12.083Zm2.75 0v12.083h12.083V21.375Zm0-2.75h12.083V6.542H21.375Z"/></svg>

<svg xmlns="http://www.w3.org/2000/svg" height="40" width="40"><path d="M2.167 37.833V2.125H37.875V37.833ZM18.625 18.625V6.542H6.542V18.625ZM18.625 21.375H6.542V33.458H18.625ZM21.375 21.375V33.458H33.458V21.375ZM21.375 18.625H33.458V6.542H21.375Z"/></svg>
